X: 18
T: Thursday Night
%R: reel
B: "Twenty Four Country Dances for the Year 1781", Thomas Skillern, ed. p.9 #2
F: http://www.vwml.org/browse/browse-collections-dance-tune-books/browse-skillerns1781#
Z: 2014 John Chambers <jc:trillian.mit.edu>
M: 2/4
L: 1/16
K: G
|:\
GBAc Bdce | dBAG AFED |\
GBAc Bdeg | fde^c d4 :|
|:\
de=fd ecBc | efge fdcd |\
gdBG EGce | dBcA G2G,2 :|
%%begintext align
%%   First and 2d Cu. Sett & turn
%% Partners .| Sett and turn sides :|
%% Cross over one Cu. :|. Right and
%% Left at top :|:
%%endtext

%%sep 1 1 500
%%sep 1 1 500
